packages/katcn/src/icons/svg/download.svg

<svg width="24" height="24" viewBox="0 0 24 24" fill="none" xmlns="http://www.w3.org/2000/svg">
<path d="M12 19C11.1969 19 10.4941 18.6946 9.99216 18.0838L4.47059 11.3653C3.96863 10.7545 3.86824 9.83832 4.16941 9.12575C4.47059 8.41317 5.17333 7.90419 5.97647 7.90419H8.28549V4.34132C8.28549 3.01796 9.3898 2 10.6949 2H13.4055C14.7106 2 15.7145 3.01796 15.7145 4.34132V7.90419H18.0235C18.8267 7.90419 19.5294 8.31138 19.8306 9.12575C20.1318 9.83832 20.0314 10.6527 19.5294 11.2635L14.0078 18.0838C13.5059 18.6946 12.8031 19 12 19ZM5.97647 10.0419L11.498 16.7605C11.6988 16.9641 11.8996 16.9641 12 16.9641C12.1004 16.9641 12.3012 16.9641 12.502 16.7605L18.0235 10.0419H14.7106C14.1082 10.0419 13.7067 9.63473 13.7067 9.02395V4.34132C13.7067 4.13772 13.5059 4.03593 13.4055 4.03593H10.6949C10.4941 4.03593 10.2933 4.23952 10.2933 4.34132V8.92216C10.2933 9.53293 9.89177 9.94012 9.28941 9.94012H5.97647V10.0419Z" fill="black"/>
<path d="M18.4179 22H5.48259C3.49254 22 2 20.5 2 18.5V16C2 15.4 2.39801 15 2.99502 15C3.59204 15 3.99005 15.4 3.99005 16V18.5C3.99005 19.3 4.68657 20 5.48259 20H18.5174C19.3134 20 20.01 19.3 20.01 18.5V16C20.01 15.4 20.408 15 21.005 15C21.602 15 22 15.4 22 16V18.5C21.9005 20.5 20.408 22 18.4179 22Z" fill="black"/>
</svg>

<svg xmlns="http://www.w3.org/2000/svg" fill="none" viewBox="0 0 24 24"><path fill="#000" d="M12 19c-.803 0-1.506-.305-2.008-.916l-5.521-6.719c-.502-.61-.603-1.527-.302-2.24.302-.712 1.004-1.22 1.807-1.22h2.31V4.34C8.285 3.018 9.39 2 10.694 2h2.71c1.306 0 2.31 1.018 2.31 2.341v3.563h2.308c.804 0 1.506.407 1.808 1.222a2.07 2.07 0 0 1-.302 2.138l-5.521 6.82c-.502.61-1.205.916-2.008.916m-6.024-8.958 5.522 6.719c.2.203.402.203.502.203s.301 0 .502-.203l5.521-6.72H14.71c-.603 0-1.004-.406-1.004-1.017V4.34c0-.203-.201-.305-.302-.305h-2.71c-.2 0-.402.204-.402.305v4.581c0 .61-.401 1.018-1.004 1.018H5.976z"/><path fill="#000" d="M18.418 22H5.483C3.493 22 2 20.5 2 18.5V16c0-.6.398-1 .995-1s.995.4.995 1v2.5c0 .8.697 1.5 1.493 1.5h13.034c.796 0 1.493-.7 1.493-1.5V16c0-.6.398-1 .995-1s.995.4.995 1v2.5c-.1 2-1.592 3.5-3.582 3.5"/></svg>
